X: 27438
T: Molloy's Favourite
R: reel
M: 4/4
K: Dmajor
d2Ad fdAF|GFEF GABc|d2Ad fdAF|GBAG FDDc|
d2de fdAF|GFEF GABc|d2Ad fdAF|GBAG FDD2||
~g3f gbag|fgaf gfef|~g3f gbag|(3fga eg fddc|
dfaf gbag|fgaf gfeg|fdec dcBA|^GABc d=gfe||

